!! 00000] TT[WS
!!!OTL: Qi chuma
!!!ARE: Asia, China, Shanxi Xixian
!! Ethnic Group: Han
!! WI, 230 (2)
!!!SCT: J0276
!!!YEM: Copyright 1995, estate of Helmut Schaffrath.
**kern
*ICvox
*Ivox
*M2/4
*k[]
*C:
{8dd
16dd
16ee
8dd
8cc
=1
8.dd
16ee
4dd
=2
16a
16g
8f
4g}
=3
{8cc
16a
16g
8cc
16a
16g
=4
16a
16g
8f
4g
=5
8.cc
16dd
8.cc
16dd
=6
8.cc
16dd
8ee
[8dd
=7
4dd]}
{16dd
16ee
16dd
16cc
=8
8a
16a
16g
8.e
16g
=9
8.cc
16a
16g
16a
8e
=10
2d}
==
!!!AGN: Xiaodiao. Fengsuge
!!!ONB: ESAC (Essen Associative Code) Database: CHINA
!!!AMT: simple duple
!!!AIN: vox
!!!EED: Helmut Schaffrath
!!!EEV: 1.0
*-
!!!ONB: Tied note syntax fixed by Craig Sapp, 2004/05/03/
